images/compose.svg

<?xml version="1.0" encoding="utf-8"?>
<!-- Generated by IcoMoon.io -->
<!DOCTYPE svg PUBLIC "-//W3C//DTD SVG 1.1//EN" "http://www.w3.org/Graphics/SVG/1.1/DTD/svg11.dtd">
<svg version="1.1" xmlns="http://www.w3.org/2000/svg" xmlns:xlink="http://www.w3.org/1999/xlink" width="30" height="30" viewBox="0 0 30 30">
<g>
	<line stroke-width="1" x1="" y1="" x2="" y2="" stroke="#449FDB" opacity=""></line>
</g>
	<path d="M25.592 4.391c-1.068-1.069-2.376-1.496-2.92-0.952v0l-2.613 2.613h-10.673l-1.603 1.602h10.673l-9.48 9.48 3.874 3.872 9.519-9.519v12.329c0 0.278-0.226 0.503-0.503 0.503h-15.658c-0.278 0-0.504-0.225-0.504-0.503v-14.083l-1.603 1.603v13.344c0 0.686 0.556 1.241 1.242 1.241h17.386c0.687 0 1.242-0.556 1.242-1.241v-14.794l2.573-2.574c0.543-0.544 0.117-1.852-0.952-2.921zM11.882 21.975l-3.874-3.873-0.003 0.003v3.874l3.877-0.004z" fill="#000000"></path>
</svg>

<?xml version="1.0" encoding="UTF-8" standalone="no"?>
<!-- Created with Inkscape (http://www.inkscape.org/) -->

<svg
   xmlns:dc="http://purl.org/dc/elements/1.1/"
   xmlns:cc="http://creativecommons.org/ns#"
   xmlns:rdf="http://www.w3.org/1999/02/22-rdf-syntax-ns#"
   xmlns:svg="http://www.w3.org/2000/svg"
   xmlns="http://www.w3.org/2000/svg"
   xmlns:inkscape="http://www.inkscape.org/namespaces/inkscape"
   version="1.1"
   width="30"
   height="30"
   viewBox="0 0 30 30"
   id="svg2">
  <metadata
     id="metadata10">
    <rdf:RDF>
      <cc:Work
         rdf:about="">
        <dc:format>image/svg+xml</dc:format>
        <dc:type
           rdf:resource="http://purl.org/dc/dcmitype/StillImage" />
      </cc:Work>
    </rdf:RDF>
  </metadata>
  <defs
     id="defs8" />
  <path
     d="M 25.592,4.39 C 24.524,3.322 23.216,2.895 22.672,3.44 L 20.06,6.05 H 9.385 L 7.783,7.654 h 10.673 l -9.48,9.48 3.874,3.872 9.52,-9.52 v 12.33 c 0,0.278 -0.227,0.503 -0.504,0.503 H 6.208 c -0.278,0 -0.504,-0.23 -0.504,-0.51 V 9.73 L 4.1,11.337 V 24.68 c 0,0.686 0.557,1.24 1.243,1.24 H 22.73 c 0.686,0 1.24,-0.555 1.24,-1.24 V 9.886 L 26.544,7.312 C 27.087,6.768 26.661,5.46 25.592,4.392 z M 11.882,21.975 8.008,18.102 8.005,18.105 v 3.874 l 3.877,-0.01 z"
     inkscape:connector-curvature="0"
     id="path4" />
</svg>
